tela-icon-theme/src/scalable/apps/freedownloadmanager.svg

<svg width="64" height="64" version="1.1" xmlns="http://www.w3.org/2000/svg">
 <g transform="matrix(1 0 0 1 .00012208 .00033208)">
  <path d="m7.0064 5c-1.1123 0-2.0065 0.89699-2.0065 2.0118v24.988c0 2.254 0.68424 4.342 1.8562 6.0697 5.4902 8.1639 15.602 20.332 25.144 20.93h8.7381l1.2524-0.27158h15.543c0.27609 0 0.53705-0.08482 0.7752-0.2294 0.0015-0.0013 0.0038-0.0013 0.0052-0.0026 0.41838-0.36817 0.68562-0.90352 0.68562-1.5082v-24.988c0-2.254-0.68425-4.342-1.8562-6.0697-2.9034-4.3174-7.1051-9.742-11.826-13.996-2.721-2.3876-5.5655-4.3976-8.2978-5.6268-1.6731-0.72695-3.3544-1.2033-5.0203-1.3078h-16.2z" fill="#125072"/>
  <path d="m15.011 13c-1.1147 0-2.0109 0.89894-2.0109 2.0162v27.614c1.2477 8.1514 11.981 15.742 18.941 16.37h7.4227l0.42544-0.13478h17.2c1.1147 0 1.9927-1.1105 2.0109-2.2276v-24.696c0-2.2589-0.68574-4.3514-1.8603-6.083-4.107-6.4723-9.6818-12.532-17.081-12.858h-16.235z" fill="#f9f9f9"/>
  <path d="m23.017 21c-1.1182 0-2.0172 0.90173-2.0172 2.0225v9.9775h14v-6.5714l18 11.571-18 11.5v-6.5h-14v5.1429c0 6.0149 4.8423 10.857 10.857 10.857h25.126c1.1182 0 2.0172-0.90173 2.0172-2.0225v-25.12c0-6.0149-4.8423-10.857-10.857-10.857h-16.286z" fill="#00cae5"/>
 </g>
</svg>

<svg xmlns="http://www.w3.org/2000/svg" width="64" height="64"><path fill="#125072" d="M7.007 5A2.004 2.004 0 0 0 5 7.012V32c0 2.254.684 4.342 1.856 6.07C12.346 46.234 22.458 58.402 32 59h8.738l1.253-.272h15.543c.276 0 .537-.085.775-.23.001 0 .004 0 .005-.002A2 2 0 0 0 59 56.988V32a10.77 10.77 0 0 0-1.856-6.07c-2.904-4.317-7.106-9.742-11.826-13.996-2.721-2.387-5.566-4.397-8.298-5.626C35.347 5.58 33.665 5.104 32 5H15.8z"/><path fill="#f9f9f9" d="M15.011 13c-1.115 0-2.01.9-2.01 2.017V42.63C14.247 50.78 24.98 58.373 31.94 59h7.423l.425-.135h17.2c1.115 0 1.993-1.11 2.011-2.228V31.942c0-2.259-.685-4.351-1.86-6.083-4.107-6.472-9.682-12.532-17.081-12.858H23.824z"/><path fill="#00cae5" d="M23.017 21A2.015 2.015 0 0 0 21 23.023V33h14V26.43l18 11.57-18 11.5V43H21v5.144A10.833 10.833 0 0 0 31.857 59h25.126A2.015 2.015 0 0 0 59 56.977v-25.12A10.833 10.833 0 0 0 48.143 21H31.857z"/></svg>
